build/img/sprite/icon-debate.svg

<svg width="32" height="30" viewBox="0 0 32 30" fill="none" xmlns="http://www.w3.org/2000/svg">
<path d="M29.8125 6.46973H25.6562V3.03223C25.6562 1.82604 24.6749 0.844727 23.4688 0.844727H8.53125C7.32506 0.844727 6.34375 1.82604 6.34375 3.03223V11.4072H2.1875C0.981313 11.4072 0 12.3885 0 13.5947V23.5322C0 24.7384 0.981313 25.7197 2.1875 25.7197H4.5625V27.5912C4.5625 28.1876 4.89406 28.7234 5.42788 28.9895C5.6505 29.1005 5.88925 29.1552 6.12669 29.1551C6.45856 29.1551 6.78769 29.0482 7.06531 28.839L11.205 25.7197H17.125C18.3312 25.7197 19.3125 24.7384 19.3125 23.5322V20.7822H20.795L24.9346 23.9015C25.2124 24.1108 25.5414 24.2177 25.8733 24.2176C26.1107 24.2176 26.3496 24.1629 26.5721 24.052C27.1059 23.7859 27.4375 23.2501 27.4375 22.6537V20.7822H29.8125C31.0187 20.7822 32 19.8009 32 18.5947V8.65723C32 7.45104 31.0187 6.46973 29.8125 6.46973ZM30.125 18.5947C30.125 18.767 29.9848 18.9072 29.8125 18.9072H26.5C25.9823 18.9072 25.5625 19.327 25.5625 19.8447V22.0269L21.6729 19.096C21.5103 18.9735 21.3123 18.9072 21.1087 18.9072H14.875C14.7027 18.9072 14.5625 18.767 14.5625 18.5947V8.65716C14.5625 8.48485 14.7027 8.34466 14.875 8.34466H29.8125C29.9848 8.34466 30.125 8.48485 30.125 8.65716V18.5947ZM17.125 23.8447H10.8913C10.6877 23.8447 10.4897 23.911 10.3271 24.0335L6.4375 26.9644V24.7822C6.4375 24.2645 6.01775 23.8447 5.5 23.8447H2.1875C2.01519 23.8447 1.875 23.7045 1.875 23.5322V13.5947C1.875 13.4224 2.01519 13.2822 2.1875 13.2822H12.6875V18.5947C12.6875 19.8009 13.6688 20.7822 14.875 20.7822H17.4375V23.5322C17.4375 23.7045 17.2973 23.8447 17.125 23.8447ZM8.53125 2.71973H23.4688C23.6411 2.71973 23.7812 2.85991 23.7812 3.03223V6.46973H14.875C13.6688 6.46973 12.6875 7.45104 12.6875 8.65723V11.4072H8.21875V3.03223C8.21875 2.85991 8.35894 2.71973 8.53125 2.71973Z" fill="#E55050"/>
</svg>

<svg width="32" height="30" fill="none" xmlns="http://www.w3.org/2000/svg"><path d="M29.813 6.47h-4.157V3.032A2.19 2.19 0 0023.47.845H8.53a2.19 2.19 0 00-2.187 2.187v8.375H2.187A2.19 2.19 0 000 13.595v9.937a2.19 2.19 0 002.188 2.188h2.374v1.871c0 .597.332 1.132.866 1.398a1.557 1.557 0 001.637-.15l4.14-3.12h5.92a2.19 2.19 0 002.188-2.187v-2.75h1.482l4.14 3.12a1.556 1.556 0 001.637.15c.534-.266.866-.802.866-1.398v-1.872h2.375A2.19 2.19 0 0032 18.595V8.657a2.19 2.19 0 00-2.188-2.187zm.312 12.125c0 .172-.14.312-.313.312H26.5a.938.938 0 00-.938.938v2.182l-3.89-2.931a.938.938 0 00-.563-.189h-6.234a.313.313 0 01-.313-.312V8.657c0-.172.14-.312.313-.312h14.938c.172 0 .312.14.312.312v9.938zm-13 5.25h-6.234a.938.938 0 00-.564.189l-3.89 2.93v-2.182a.938.938 0 00-.937-.937H2.187a.313.313 0 01-.312-.313v-9.937c0-.173.14-.313.313-.313h10.5v5.313a2.19 2.19 0 002.187 2.187h2.563v2.75c0 .172-.14.313-.313.313zM8.531 2.72H23.47c.172 0 .312.14.312.312V6.47h-8.906a2.19 2.19 0 00-2.188 2.187v2.75H8.22V3.032c0-.172.14-.312.312-.312z" fill="#E55050"/></svg>
